app/dist/common/images/bijou-brigitte-modi-access.svg

<svg height="18" viewBox="0 0 18 18" width="18" xmlns="http://www.w3.org/2000/svg"><path d="m0 0h18v18h-18z" fill="#f0f3fa"/><g fill="#858585"><path d="m7 4 1 1.71-.15 1.29zm4 0-1 1.71.15 1.29zm-2 3-1-1.33 1-2.67 1 2.67z"/><path d="m5.62 7h2.38v2.86h-2.55c-.63 0-1.16-.58-1.16-1.29v-.1c0-.8.6-1.47 1.33-1.47zm.44.55h.94v1.9h-1.04c-.39 0-.71-.38-.71-.86v-.06c0-.54.37-.98.81-.98zm-.61 2.31h2.55v3.14h-2.72c-.7 0-1.28-.64-1.28-1.42v-.1c0-.9.65-1.62 1.45-1.62zm.32.41h1.23v2.18h-1.36c-.49 0-.89-.44-.89-.98v-.08c0-.61.46-1.12 1.02-1.12zm6.61-3.27h-2.38v2.86h2.55c.63 0 1.16-.58 1.16-1.29v-.1c0-.8-.6-1.47-1.33-1.47zm-.44.55h-.94v1.9h1.04c.39 0 .71-.38.71-.86v-.06c0-.54-.37-.98-.81-.98zm.61 2.31h-2.55v3.14h2.72c.7 0 1.28-.64 1.28-1.42v-.1c0-.9-.65-1.62-1.45-1.62zm-.32.41h-1.23v2.18h1.36c.49 0 .89-.44.89-.98v-.08c0-.61-.46-1.12-1.02-1.12z" fill-rule="evenodd"/></g></svg>

<!-- by TradingView --><svg width="18" height="18" viewBox="0 0 18 18" xmlns="http://www.w3.org/2000/svg"><path fill="#F0F3FA" d="M0 0h18v18H0z"/><path d="m7 4 1 1.71L7.85 7 7 4ZM11 4l-1 1.71.15 1.29.85-3ZM9 7 8 5.67 9 3l1 2.67L9 7Z" fill="#858585"/><path fill-rule="evenodd" d="M5.62 7H8v2.86H5.45c-.63 0-1.16-.58-1.16-1.29v-.1c0-.8.6-1.47 1.33-1.47Zm.44.55H7v1.9H5.96c-.39 0-.71-.38-.71-.86v-.06c0-.54.37-.98.81-.98ZM5.45 9.86H8V13H5.28C4.58 13 4 12.36 4 11.58v-.1c0-.9.65-1.62 1.45-1.62Zm.32.41H7v2.18H5.64c-.49 0-.89-.44-.89-.98v-.08c0-.61.46-1.12 1.02-1.12ZM12.38 7H10v2.86h2.55c.63 0 1.16-.58 1.16-1.29v-.1c0-.8-.6-1.47-1.33-1.47Zm-.44.55H11v1.9h1.04c.39 0 .71-.38.71-.86v-.06c0-.54-.37-.98-.81-.98ZM12.55 9.86H10V13h2.72c.7 0 1.28-.64 1.28-1.42v-.1c0-.9-.65-1.62-1.45-1.62Zm-.32.41H11v2.18h1.36c.49 0 .89-.44.89-.98v-.08c0-.61-.46-1.12-1.02-1.12Z" fill="#858585"/></svg>
